X:39
T:Lovely Jean Dix.39
M:C
L:1/8
Q:1/4=90
S:Anon. MS dated 1811, from Dixon collection, Holton le Moor, Lincs.
R:Song
C:Burns, 1790
N:Last bar missing in MS
O:England;Lincolnshire;Holton le Moor
Z:vmp.R.Greig 2012 <https://www.village-music-project.org.uk>
K:C
G|c> c c> c c> A c> a|g> e d> c A2z G/A/|!
w:Of a' the airts the wind can blaw, I dear-ly like the West, F-or
c> c c> c c> A c> a|g> a c'> e g2za|!
w:there the bonn-ie lass-ie lives, the lass that I loe best Tho'
g> a c'> e g> e d> c|d d/ e/ fe dc {B}A2z G/A/|!
w:wild woods grow and riv-ers row Wi mon-ie a h-ill be-tween. Baith
c> c c> c c A c> a|g> e d> e c2z||G/F/|!
w:day and night my fan-cys flight is ev-er wi' my Jean. I-
E> G c G A> G c> G|e> g f/e/ d/c/ {B}A2z G/F/|!
w:see her in the dewy flow-er, Sae love-ly sw-eet a-nd fair I-
E> G c> G A> G c> d|e> f g/a/b/ c'/ g2z a/b/|!
w:hear her voice in il-ka bird, Wi' mus-ic ch-arm the air, Th-eres
c'> b a> g a> g f> e|d> e (f/e/) (d/c/) A2 z G|!
w:not a bonn-y flower that springs by fount-ain sh-aw o-r green, Nor
c> c c> c c> G c> a|g> e d> e c3||
w:yet a bonn-y bird that sings but minds me o' my Jean.
W:%
W:On the banks of flowing Clyde,
W:The lasses busk them braw,
W:But when their bestt they ha put on,
W:My Jeanie dangs them a';
W:In hamely weeds she far exceeds
W:The fairest o' the town;
W:Baith grave and gay confess it so,
W:Tho' dressed in russet gown.
W:The gamesome lamb that sucks its dam,
W:Mair harmless can na' be,
W:She has na faut, (if sic we ca't)
W:Except her love for me:
W:The sparkling dew, of cleanest hue,
W:Is like her shining e'en;
W:In shape and air, wha can compare
W:Wi' my sweet lovely Jean.
W:%
W:%
W:O blaw ye westlin winds, blaw soft
W:Amang the leafy trees;
W:Wi gentle breath, fra muir an' dale,
W:Bring hame the laden bees;
W:And bring the lassie back to me,
W:That's aye so neat and clean,
W:A blink o' her wad banish care,
W:So lovely is my Jean.
W:What sighs and vows, amang the knows
W:Hae past atween us twa!
W:How fain to meet! How wae to part!
W:That day she gaed awa:
W:The Powers aboon can only ken,
W:To whom the heart is seen,
W:That nane can be, sae dear to me,
W:As my sweet lovely Jean

